Sources/FrostedUI/Resources/Icons.xcassets/raiseHand20.imageset/raise-hand-20.svg

<svg width="20" height="20" viewBox="0 0 20 20" fill="none" xmlns="http://www.w3.org/2000/svg" data-fui-icon="true">
  <path
    d="M8.51855 1.4375C9.41662 1.43765 10.2005 1.92324 10.625 2.64551C10.9977 2.41601 11.4357 2.28223 11.9053 2.28223C13.253 2.28224 14.3486 3.37275 14.3486 4.72168V5.56738C14.5665 5.51833 14.7879 5.5 15 5.5C15.6253 5.5 16.2286 5.72577 16.6689 6.21191C17.1039 6.69226 17.3125 7.35137 17.3125 8.09961V11.2666C17.3125 15.4246 14.0278 18.5625 10 18.5625C5.97214 18.5625 2.6875 15.4246 2.6875 11.2666V5.56543C2.68774 4.21675 3.78338 3.12706 5.13086 3.12695C5.48844 3.12695 5.82743 3.20578 6.13379 3.34375C6.37752 2.25193 7.35384 1.4375 8.51855 1.4375ZM8.51855 2.9375C7.99562 2.9375 7.57422 3.36007 7.57422 3.87695V10.0996C7.57422 10.5138 7.23843 10.8496 6.82422 10.8496C6.41018 10.8494 6.07422 10.5137 6.07422 10.0996V5.56543C6.07398 5.04875 5.65364 4.62695 5.13086 4.62695C4.60817 4.62705 4.18774 5.04882 4.1875 5.56543V11.2666C4.1875 14.5748 6.77911 17.0625 10 17.0625C13.2209 17.0625 15.8125 14.5748 15.8125 11.2666V8.09961C15.8125 7.6233 15.6819 7.35704 15.5566 7.21875C15.4366 7.08634 15.2582 7 15 7C14.6443 7 14.5292 7.07718 14.4922 7.11328C14.4575 7.14718 14.3487 7.28486 14.3486 7.75391C14.3486 8.39847 14.2469 8.91071 14.0781 9.34766C13.9118 9.77811 13.6914 10.1055 13.5107 10.3672C13.1654 10.8673 12.9375 11.1694 12.9375 11.875C12.9375 12.2892 12.6017 12.625 12.1875 12.625C11.7733 12.625 11.4375 12.2892 11.4375 11.875C11.4375 10.6718 11.9161 10.0363 12.2764 9.51465C12.4484 9.26561 12.5805 9.06083 12.6787 8.80664C12.7745 8.55869 12.8486 8.23206 12.8486 7.75391V4.72168C12.8486 4.2048 12.4282 3.78224 11.9053 3.78223C11.3823 3.78223 10.9619 4.20479 10.9619 4.72168V8.25488C10.9619 8.66902 10.626 9.00476 10.2119 9.00488C9.7977 9.00488 9.46191 8.6691 9.46191 8.25488V3.87695C9.46191 3.3602 9.04131 2.93772 8.51855 2.9375Z"
    fill="currentColor"
  />
</svg>

<svg xmlns="http://www.w3.org/2000/svg" width="20" height="20" fill="none" data-fui-icon="true" viewBox="0 0 20 20"><path fill="currentColor" d="M8.519 1.438c.898 0 1.681.485 2.106 1.208a2.441 2.441 0 0 1 3.724 2.076v.845c.217-.049.439-.067.651-.067.625 0 1.229.226 1.669.712.435.48.643 1.14.643 1.888v3.167c0 4.158-3.284 7.296-7.312 7.296s-7.312-3.138-7.312-7.296V5.565a2.44 2.44 0 0 1 3.446-2.221 2.44 2.44 0 0 1 2.385-1.906m0 1.5a.94.94 0 0 0-.945.939V10.1a.75.75 0 0 1-1.5 0V5.565a.94.94 0 0 0-.943-.938.94.94 0 0 0-.944.938v5.702c0 3.308 2.592 5.796 5.813 5.796s5.813-2.488 5.813-5.796V8.1c0-.477-.131-.743-.256-.881C15.437 7.086 15.258 7 15 7c-.356 0-.47.077-.508.113-.035.034-.143.172-.143.64 0 .645-.102 1.158-.27 1.595-.167.43-.388.757-.568 1.02-.346.5-.573.801-.573 1.507a.75.75 0 0 1-1.5 0c0-1.203.478-1.839.838-2.36.172-.25.305-.454.403-.708.095-.248.17-.575.17-1.053V4.722c0-.517-.42-.94-.944-.94a.94.94 0 0 0-.943.94v3.533a.75.75 0 0 1-1.5 0V3.877c0-.517-.42-.94-.943-.94"/></svg>
